co/cookie.svg

<svg viewBox="0 0 24 24" fill="none" xmlns="http://www.w3.org/2000/svg" height="1em" width="1em">
  <path d="M11.9837 21.9999C6.47237 21.9938 2.00605 17.5203 2 11.9999C2.39311 12.1112 2.79955 12.168 3.20803 12.1689C4.55933 12.1789 5.82888 11.5217 6.6025 10.412C7.29413 9.41154 7.44027 8.13091 6.99186 6.99997C7.27858 7.05119 7.5692 7.07729 7.86045 7.07797C9.1552 7.08764 10.3841 6.50698 11.2 5.49998C11.9984 4.52274 12.3106 3.2352 12.0486 2C17.5625 2.01795 22.0178 6.50963 21.9999 12.0324C21.982 17.5553 17.4976 22.0178 11.9837 21.9999ZM12.7455 18.5679C12.8991 18.634 13.0645 18.6681 13.2317 18.6679C13.7362 18.6674 14.1909 18.363 14.3842 17.8961C14.5775 17.4293 14.4714 16.8919 14.1152 16.5339C13.8805 16.2998 13.5629 16.1683 13.2317 16.1679C12.6392 16.1693 12.1294 16.5877 12.0115 17.1693C11.8937 17.7509 12.2004 18.3353 12.7455 18.5679ZM6.91199 16.8749C7.11205 16.9578 7.32647 17.0003 7.54296 16.9999C8.21842 16.9997 8.82678 16.5907 9.08272 15.9646C9.33866 15.3385 9.19143 14.6195 8.71006 14.1449C8.3989 13.838 7.97969 13.6659 7.54296 13.6659C6.62442 13.667 5.88022 14.4129 5.87967 15.3329C5.87984 16.0017 6.2781 16.606 6.89202 16.8689H6.89702H6.908L6.91199 16.8749ZM16.3276 14.3679C16.9987 14.6502 17.775 14.4627 18.2439 13.9051C18.7127 13.3475 18.7652 12.5493 18.3733 11.9349C18.2506 11.7436 18.0902 11.5793 17.9021 11.4519C17.3853 11.1024 16.7167 11.0716 16.17 11.3721C15.6233 11.6726 15.2902 12.254 15.307 12.8784C15.3238 13.5028 15.6877 14.0654 16.2498 14.3359H16.2378L16.2677 14.3489L16.2877 14.3569H16.2817C16.296 14.3615 16.31 14.3669 16.3236 14.3729L16.3276 14.3679ZM11.9837 10.333C11.5855 10.3323 11.2426 10.6141 11.1655 11.0054C11.0883 11.3967 11.2986 11.7879 11.6672 11.9389C12.0357 12.0899 12.4594 11.9583 12.6782 11.625C12.8969 11.2917 12.8493 10.8499 12.5648 10.571C12.4906 10.4978 12.4032 10.4394 12.3072 10.399L12.2892 10.391L12.2623 10.381C12.1729 10.349 12.0786 10.3328 11.9837 10.333ZM15.7276 6.16697C15.0888 6.16539 14.5526 6.64873 14.4871 7.28522C14.4216 7.92172 14.8481 8.50444 15.4738 8.63339C16.0995 8.76235 16.7211 8.39562 16.9118 7.78494C17.1025 7.17425 16.8004 6.51814 16.2128 6.26698H16.2028C16.0525 6.20267 15.8911 6.16869 15.7276 6.16697ZM4.49593 9.49996C4.03663 9.49996 3.66429 9.12701 3.66429 8.66696C3.66429 8.20691 4.03663 7.83397 4.49593 7.83397C4.95523 7.83397 5.32757 8.20691 5.32757 8.66696C5.32702 9.12679 4.95501 9.49941 4.49593 9.49996ZM3.24797 6.99997C2.55873 6.99997 2 6.44033 2 5.74998C2 5.05963 2.55873 4.49999 3.24797 4.49999C3.9372 4.49999 4.49593 5.05963 4.49593 5.74998C4.49483 6.43988 3.93674 6.99887 3.24797 6.99997ZM8.23983 5.33298C7.55059 5.33298 6.99186 4.77334 6.99186 4.08299C6.99186 3.39264 7.55059 2.833 8.23983 2.833C8.92906 2.833 9.48779 3.39264 9.48779 4.08299C9.48779 4.7735 8.92922 5.33343 8.23983 5.33398V5.33298ZM5.32857 3.66699C4.8694 3.66699 4.49711 3.29425 4.49693 2.83433C4.49675 2.37441 4.86873 2.00137 5.32791 2.001C5.78708 2.00063 6.15967 2.37308 6.16022 2.833C6.16022 3.29321 5.78804 3.66644 5.32857 3.66699Z" fill="black"/>
</svg>

<svg viewBox="0 0 24 24" fill="none" xmlns="http://www.w3.org/2000/svg" height="1em" width="1em">
  <path d="M11.984 22C6.472 21.994 2.006 17.52 2 12c.393.111.8.168 1.208.169a4.101 4.101 0 0 0 3.394-1.757c.692-1 .838-2.281.39-3.412.287.051.577.077.868.078A4.257 4.257 0 0 0 11.2 5.5a4.166 4.166 0 0 0 .849-3.5c5.514.018 9.969 4.51 9.95 10.032-.017 5.523-4.501 9.986-10.015 9.968Zm.761-3.432a1.249 1.249 0 0 0 1.639-.672 1.252 1.252 0 0 0-.269-1.362 1.249 1.249 0 0 0-2.104.635 1.25 1.25 0 0 0 .735 1.399Zm-5.833-1.693a1.664 1.664 0 0 0 2.17-.91 1.669 1.669 0 0 0-1.539-2.3 1.667 1.667 0 0 0-1.663 1.668 1.67 1.67 0 0 0 1.012 1.536h.016l.004.006Zm9.416-2.507a1.662 1.662 0 0 0 1.916-.463 1.668 1.668 0 0 0-.342-2.453 1.662 1.662 0 0 0-2.595 1.426c.017.625.38 1.187.943 1.458h-.012l.03.013.02.008h-.006a.43.43 0 0 1 .042.016l.004-.005Zm-4.344-4.035a.833.833 0 1 0 .323.066l-.018-.008-.027-.01a.822.822 0 0 0-.278-.048Zm3.744-4.166a1.246 1.246 0 0 0-.254 2.466 1.247 1.247 0 0 0 .739-2.366h-.01a1.24 1.24 0 0 0-.475-.1ZM4.496 9.5a.832.832 0 1 1 .001-1.665.832.832 0 0 1-.001 1.665ZM3.248 7a1.249 1.249 0 1 1 .002-2.498A1.249 1.249 0 0 1 3.248 7ZM8.24 5.333a1.249 1.249 0 1 1 .002-2.5 1.249 1.249 0 0 1-.002 2.501v-.001ZM5.329 3.667a.832.832 0 1 1 0-1.665.832.832 0 0 1 0 1.665Z" fill="#000"/>
</svg>
